apps/scalable/f-spot.svg

<svg xmlns="http://www.w3.org/2000/svg" style="isolation:isolate" width="256" height="256"><defs><filter id="a" width="270.648" height="254.338" x="-7.32" y="2.95" filterUnits="userSpaceOnUse"><feGaussianBlur xmlns="http://www.w3.org/2000/svg" in="SourceGraphic" stdDeviation="4.294"/><feOffset xmlns="http://www.w3.org/2000/svg" dy="4" result="pf_100_offsetBlur"/><feFlood xmlns="http://www.w3.org/2000/svg" flood-opacity=".4"/><feComposite xmlns="http://www.w3.org/2000/svg" in2="pf_100_offsetBlur" operator="in" result="pf_100_dropShadow"/><feBlend xmlns="http://www.w3.org/2000/svg" in="SourceGraphic" in2="pf_100_dropShadow"/></filter></defs><path fill="#F2F2F2" d="M165.685 11.947c74.055 0 84.639 10.557 84.639 84.544v59.251c0 73.986-10.584 84.543-84.639 84.543h-75.37c-74.055 0-84.639-10.557-84.639-84.543V96.491c0-73.987 10.584-84.544 84.639-84.544h75.37z" filter="url(#a)"/><g opacity=".75"><path d="M172.285 100.846c21.074 0 38.183 11.481 38.183 25.622 0 14.142-17.109 25.623-38.183 25.623-21.074 0-38.183-11.481-38.183-25.623 0-14.141 17.109-25.622 38.183-25.622z" fill="#a4c747" opacity=".75"/><path d="M102.926 82.771c0-21.14 11.445-38.303 25.542-38.303 14.098 0 25.543 17.163 25.543 38.303 0 21.14-11.445 38.303-25.543 38.303-14.097 0-25.542-17.163-25.542-38.303z" fill="#f49940" opacity=".75"/><path d="M84.652 152.091c-21.074 0-38.184-11.481-38.184-25.623 0-14.141 17.11-25.622 38.184-25.622 21.074 0 38.183 11.481 38.183 25.622 0 14.142-17.109 25.623-38.183 25.623z" fill="#e573a3" opacity=".75"/><path d="M103.182 170.165c0-21.139 11.445-38.302 25.543-38.302 14.097 0 25.542 17.163 25.542 38.302 0 21.14-11.445 38.303-25.542 38.303-14.098 0-25.543-17.163-25.543-38.303z" fill="#065ff8" opacity=".75"/></g><g opacity=".75"><path d="M177.596 139.11c14.998 14.85 19.135 35.078 9.232 45.143-9.903 10.064-30.12 6.179-45.118-8.672-14.999-14.85-19.135-35.078-9.232-45.143 9.903-10.064 30.12-6.179 45.118 8.672z" fill="#50bf9d" opacity=".75"/><path d="M140.89 77.37c14.804-15.046 34.969-19.195 45.002-9.261 10.033 9.934 6.16 30.214-8.644 45.26-14.804 15.045-34.969 19.195-45.002 9.26-10.033-9.934-6.16-30.214 8.644-45.259z" fill="#d9d419" opacity=".75"/><path d="M79.341 113.827c-14.998-14.851-19.135-35.078-9.232-45.143 9.903-10.064 30.12-6.179 45.118 8.672 14.999 14.85 19.135 35.078 9.232 45.143-9.903 10.064-30.12 6.178-45.118-8.672z" fill="#ea6149" opacity=".75"/><path d="M79.872 139.749c14.804-15.046 34.968-19.195 45.001-9.261 10.033 9.934 6.16 30.214-8.644 45.26-14.804 15.045-34.969 19.194-45.002 9.26-10.033-9.934-6.159-30.214 8.645-45.259z" fill="#a78bc1" opacity=".75"/></g><g opacity=".4"><linearGradient id="b" x1=".517" x2=".517" y2="1"><stop offset="0%" stop-color="#fff"/><stop offset="12.5%" stop-opacity=".098" stop-color="#fff"/><stop offset="92.5%" stop-opacity=".098"/><stop offset="100%" stop-opacity=".498"/></linearGradient><path fill="none" stroke="url(#b)" stroke-linecap="round" stroke-linejoin="round" stroke-width="4.077" d="M165.685 11.947c74.055 0 84.639 10.557 84.639 84.544v59.251c0 73.986-10.584 84.543-84.639 84.543h-75.37c-74.055 0-84.639-10.557-84.639-84.543V96.491c0-73.987 10.584-84.544 84.639-84.544h75.37z" vector-effect="non-scaling-stroke"/></g></svg>

<svg xmlns="http://www.w3.org/2000/svg" style="isolation:isolate" width="256" height="256" viewBox="0 0 256 256">
 <defs>
  <filter id="NuyEKWLMTCevGxBRxWCthlh6NaIrzqjL" width="270.648" height="254.338" x="-7.32" y="2.95" filterUnits="userSpaceOnUse">
   <feGaussianBlur xmlns="http://www.w3.org/2000/svg" in="SourceGraphic" stdDeviation="4.294"/>
   <feOffset xmlns="http://www.w3.org/2000/svg" dx="0" dy="4" result="pf_100_offsetBlur"/>
   <feFlood xmlns="http://www.w3.org/2000/svg" flood-opacity=".4"/>
   <feComposite xmlns="http://www.w3.org/2000/svg" in2="pf_100_offsetBlur" operator="in" result="pf_100_dropShadow"/>
   <feBlend xmlns="http://www.w3.org/2000/svg" in="SourceGraphic" in2="pf_100_dropShadow" mode="normal"/>
  </filter>
 </defs>
 <g filter="url(#NuyEKWLMTCevGxBRxWCthlh6NaIrzqjL)">
  <path fill="#F2F2F2" d="M 165.685 11.947 C 239.74 11.947 250.324 22.504 250.324 96.491 L 250.324 155.742 C 250.324 229.728 239.74 240.285 165.685 240.285 L 90.315 240.285 C 16.26 240.285 5.676 229.728 5.676 155.742 L 5.676 96.491 C 5.676 22.504 16.26 11.947 90.315 11.947 L 165.685 11.947 Z"/>
 </g>
 <g>
  <g style="opacity:0.75">
   <g opacity=".75">
    <path d="M 172.285 100.846 L 172.285 100.846 C 193.359 100.846 210.468 112.327 210.468 126.468 L 210.468 126.468 C 210.468 140.61 193.359 152.091 172.285 152.091 L 172.285 152.091 C 151.211 152.091 134.102 140.61 134.102 126.468 L 134.102 126.468 C 134.102 112.327 151.211 100.846 172.285 100.846 Z" style="fill:#A4C747"/>
   </g>
   <g opacity=".75">
    <path d="M 102.926 82.771 L 102.926 82.771 C 102.926 61.631 114.371 44.468 128.468 44.468 L 128.468 44.468 C 142.566 44.468 154.011 61.631 154.011 82.771 L 154.011 82.771 C 154.011 103.911 142.566 121.074 128.468 121.074 L 128.468 121.074 C 114.371 121.074 102.926 103.911 102.926 82.771 Z" style="fill:#F49940"/>
   </g>
   <g opacity=".75">
    <path d="M 84.652 152.091 L 84.652 152.091 C 63.578 152.091 46.468 140.61 46.468 126.468 L 46.468 126.468 C 46.468 112.327 63.578 100.846 84.652 100.846 L 84.652 100.846 C 105.726 100.846 122.835 112.327 122.835 126.468 L 122.835 126.468 C 122.835 140.61 105.726 152.091 84.652 152.091 Z" style="fill:#E573A3"/>
   </g>
   <g opacity=".75">
    <path d="M 103.182 170.165 L 103.182 170.165 C 103.182 149.026 114.627 131.863 128.725 131.863 L 128.725 131.863 C 142.822 131.863 154.267 149.026 154.267 170.165 L 154.267 170.165 C 154.267 191.305 142.822 208.468 128.725 208.468 L 128.725 208.468 C 114.627 208.468 103.182 191.305 103.182 170.165 Z" style="fill:#065FF8"/>
   </g>
  </g>
  <g style="opacity:0.75">
   <g opacity=".75">
    <path d="M 177.596 139.11 L 177.596 139.11 C 192.594 153.96 196.731 174.188 186.828 184.253 L 186.828 184.253 C 176.925 194.317 156.708 190.432 141.71 175.581 L 141.71 175.581 C 126.711 160.731 122.575 140.503 132.478 130.438 L 132.478 130.438 C 142.381 120.374 162.598 124.259 177.596 139.11 Z" style="fill:#50BF9D"/>
   </g>
   <g opacity=".75">
    <path d="M 140.89 77.37 L 140.89 77.37 C 155.694 62.324 175.859 58.175 185.892 68.109 L 185.892 68.109 C 195.925 78.043 192.052 98.323 177.248 113.369 L 177.248 113.369 C 162.444 128.414 142.279 132.564 132.246 122.629 L 132.246 122.629 C 122.213 112.695 126.086 92.415 140.89 77.37 Z" style="fill:#D9D419"/>
   </g>
   <g opacity=".75">
    <path d="M 79.341 113.827 L 79.341 113.827 C 64.343 98.976 60.206 78.749 70.109 68.684 L 70.109 68.684 C 80.012 58.62 100.229 62.505 115.227 77.356 L 115.227 77.356 C 130.226 92.206 134.362 112.434 124.459 122.499 L 124.459 122.499 C 114.556 132.563 94.339 128.677 79.341 113.827 Z" style="fill:#EA6149"/>
   </g>
   <g opacity=".75">
    <path d="M 79.872 139.749 L 79.872 139.749 C 94.676 124.703 114.84 120.554 124.873 130.488 L 124.873 130.488 C 134.906 140.422 131.033 160.702 116.229 175.748 L 116.229 175.748 C 101.425 190.793 81.26 194.942 71.227 185.008 L 71.227 185.008 C 61.194 175.074 65.068 154.794 79.872 139.749 Z" style="fill:#A78BC1"/>
   </g>
  </g>
 </g>
 <g opacity=".4">
  <linearGradient id="_lgradient_228" x1=".517" x2=".517" y1="0" y2="1">
   <stop offset="0%" style="stop-color:rgb(255,255,255)"/>
   <stop offset="12.5%" stop-opacity=".098" style="stop-color:rgb(255,255,255)"/>
   <stop offset="92.5%" stop-opacity=".098" style="stop-color:rgb(0,0,0)"/>
   <stop offset="100%" stop-opacity=".498" style="stop-color:rgb(0,0,0)"/>
  </linearGradient>
  <path fill="none" stroke="url(#_lgradient_228)" stroke-linecap="round" stroke-linejoin="round" stroke-width="4.077" d="M 165.685 11.947 C 239.74 11.947 250.324 22.504 250.324 96.491 L 250.324 155.742 C 250.324 229.728 239.74 240.285 165.685 240.285 L 90.315 240.285 C 16.26 240.285 5.676 229.728 5.676 155.742 L 5.676 96.491 C 5.676 22.504 16.26 11.947 90.315 11.947 L 165.685 11.947 Z" vector-effect="non-scaling-stroke"/>
 </g>
</svg>
